src/lib/packages/icons/src/assets/filled/caret-down-circle.svg

<svg width="24" height="24" viewBox="0 0 24 24" fill="none" xmlns="http://www.w3.org/2000/svg">
<path d="M12 2C6.477 2 2 6.477 2 12C2 17.523 6.477 22 12 22C17.523 22 22 17.523 22 12C22 6.477 17.523 2 12 2ZM15.7881 11.302L12.8679 14.7639C12.4149 15.3009 11.5851 15.3009 11.1321 14.7639L8.21191 11.302C7.72091 10.72 8.13788 9.83301 8.90088 9.83301H15.0991C15.8631 9.83301 16.2791 10.72 15.7881 11.302Z" fill="currentColor"/>
</svg>

<svg xmlns="http://www.w3.org/2000/svg" width="24" height="24" fill="none"><path fill="currentColor" d="M12 2C6.477 2 2 6.477 2 12s4.477 10 10 10 10-4.477 10-10S17.523 2 12 2Zm3.788 9.302-2.92 3.462a1.137 1.137 0 0 1-1.736 0l-2.92-3.462c-.491-.582-.074-1.469.689-1.469h6.198c.764 0 1.18.887.69 1.469Z"/></svg>
